static/images/mobile/copyright/wikipedia-wordmark-bh.svg

<?xml version="1.0" encoding="UTF-8"?>
<svg width="120px" height="28px" viewBox="0 0 120 28" version="1.1" xmlns="http://www.w3.org/2000/svg" xmlns:xlink="http://www.w3.org/1999/xlink">
    <title>bh-wordmark</title>
    <g id="Page-1" stroke="none" stroke-width="1" fill="none" fill-rule="evenodd">
        <path d="M3.69270221,10.4754777 L1.79506357,10.4754777 L0,8.70605824 L3.71834597,8.70605824 C2.8635527,7.44953343 2.43615698,5.91945708 2.43615771,4.11582425 C2.43615698,2.82511249 2.93620995,1.80363684 3.93631789,1.05139438 C4.74836754,0.444518556 5.84250043,0.141040618 7.21871985,0.141040618 C8.60347643,0.141040618 9.79163634,0.294930017 10.7832033,0.602628394 C11.9371626,0.953119447 13.0868569,1.56856909 14.2322898,2.4489795 C16.2153932,3.97908066 17.7411957,6.12033297 18.8097018,8.87274281 L18.1557859,8.87274281 C18.0190029,8.63341942 17.792483,8.18465398 17.476226,7.52644504 C17.1599376,6.79989211 16.5573097,6.00921016 15.6683406,5.15439683 C14.5400022,4.06883374 13.4373214,3.29524764 12.3602949,2.83363598 C11.0610014,2.27804605 9.74889677,2.00023886 8.42397682,2.0002137 C7.20161854,2.00023886 6.19296486,2.27377199 5.39801251,2.82081419 C4.39790311,3.50467145 3.89785014,4.40220233 3.89785233,5.51340955 C3.89785014,6.92383688 4.31242389,7.98805196 5.14157486,8.70605824 L7.75723892,8.70605824 L9.55230252,10.4754777 L5.82113473,10.4754777 L5.82113473,27.0926376 L3.69270221,24.964206 L3.69270221,10.4754777 M7.74441713,10.4754777 L6.00064109,8.70605824 L23.6307297,8.70605824 L25.3616839,10.4754777 L21.0407094,10.4754777 L21.0407094,27.0926376 L18.7584143,24.8103434 L18.7584143,20.2072871 C18.1173097,20.6346905 17.3821892,21.0107972 16.5530504,21.3356128 C15.6042233,21.703178 14.8092673,21.8698638 14.1681803,21.8356666 C12.868891,21.7672887 11.7448405,21.1390169 10.7960251,19.9508494 C10.0438057,19.0020383 9.66769755,17.8822615 9.66769946,16.5915153 C9.81301207,15.9247901 10.0609015,15.3905446 10.4113687,14.9887804 C11.7704842,13.7066067 13.2749169,13.0954308 14.9246714,13.1552507 C16.5658635,13.2065528 17.8437766,13.9929616 18.7584143,15.5144771 L18.7584143,10.4754777 L7.74441713,10.4754777 M18.4891548,16.0914632 C18.2156107,15.5102155 17.3693674,15.2195752 15.950422,15.2195752 C14.4288852,15.2195752 13.0783149,15.8179407 11.898707,17.0146388 C11.3259927,17.5959066 11.0396409,18.1899867 11.0396409,18.7968791 C11.0396409,19.6003928 11.693553,20.002137 13.001389,20.002137 C14.6425831,20.002137 16.1341939,19.3097635 17.476226,17.9249911 C18.1515014,17.2326194 18.4891548,16.6214435 18.4891548,16.0914632 M25.4899027,10.4754777 L23.5922641,10.4754777 L21.7972005,8.70605824 L25.5155465,8.70605824 C24.6607532,7.44953343 24.2333575,5.91945708 24.2333582,4.11582425 C24.2333575,2.82511249 24.7334105,1.80363684 25.7335184,1.05139438 C26.5455681,0.444518556 27.639701,0.141040618 29.0159206,0.141040618 C30.4006766,0.141040618 31.5888368,0.294930017 32.580403,0.602628394 C33.7343625,0.953119447 34.8840566,1.56856909 36.0294908,2.4489795 C38.0125941,3.97908066 39.5383968,6.12033297 40.6069025,8.87274281 L39.952986,8.87274281 C39.8162029,8.63341942 39.5896843,8.18465398 39.2734267,7.52644504 C38.9571381,6.79989211 38.354511,6.00921016 37.4655417,5.15439683 C36.3372033,4.06883374 35.2345223,3.29524764 34.1574951,2.83363598 C32.8582018,2.27804605 31.5460981,2.00023886 30.2211766,2.0002137 C28.9988193,2.00023886 27.9901654,2.27377199 27.1952131,2.82081419 C26.1951037,3.50467145 25.6950507,4.40220233 25.6950529,5.51340955 C25.6950507,6.92383688 26.1096244,7.98805196 26.9387754,8.70605824 L29.5544387,8.70605824 L31.3495023,10.4754777 L27.6183353,10.4754777 L27.6183353,27.0926376 L25.4899027,24.964206 L25.4899027,10.4754777 M29.5416173,10.4754777 L27.7850197,8.70605824 L51.7491181,8.70605824 L53.5057156,10.4754777 L41.6454745,10.4754777 L41.6454745,15.4119021 C41.9018994,15.1811218 42.0899537,15.0229848 42.2096374,14.9374929 C42.500254,14.7238085 42.7866089,14.5784929 43.068704,14.5015498 C43.6499481,14.3391511 44.1927406,14.2579463 44.6970835,14.2579335 C46.0048982,14.2579463 47.086209,14.7152597 47.9410194,15.6298754 C48.7957915,16.5359661 49.2231876,17.6514685 49.2232077,18.9763864 C49.2231876,20.0363359 48.847079,21.0364419 48.094882,21.976706 C47.5307009,22.7032839 46.6459915,23.3101873 45.4407518,23.7974142 L44.5047548,21.976706 C45.7185433,21.4125504 46.530595,20.9680585 46.9409116,20.6432302 C47.8469731,19.9337609 48.3000139,19.1559009 48.3000321,18.3096485 C48.3000139,17.5488934 47.9452756,16.8607853 47.2358154,16.2453258 C46.7827582,15.8606793 46.077556,15.7153656 45.1202052,15.8093809 C44.6671499,15.8521323 44.1115358,16.1513087 43.4533595,16.7069136 C42.8037047,17.2539897 42.2010776,17.925002 41.6454745,18.7199487 L41.6454745,27.0926376 L39.5170429,24.9385613 L39.5170429,21.207393 C39.1494723,21.6176987 38.6066797,21.9724389 37.8886634,22.2716097 C37.1706307,22.5622446 36.525263,22.7075583 35.9525586,22.7075547 C34.7131054,22.7075583 33.6531631,22.2844366 32.7727317,21.4381878 C31.9008419,20.59195 31.4648988,19.5491053 31.4649006,18.3096485 C31.4648988,17.044567 31.8794716,16.0017205 32.7086228,15.1811091 C33.5377666,14.3519725 34.5848857,13.9373997 35.8499836,13.9373869 C37.4569856,13.9373997 38.6793375,14.6212334 39.5170429,15.9888881 L39.5170429,16.7710225 C38.7648167,16.1042956 37.9014775,15.7709275 36.9270217,15.7709148 C35.6790197,15.7709275 34.7131054,16.0145419 34.0292772,16.5017635 C33.0890021,17.1685105 32.5761268,18.0574943 32.4906512,19.168715 C32.4393601,19.8696519 32.6316888,20.4338129 33.0676355,20.8612036 C33.4266446,21.2031259 33.922424,21.3740843 34.5549739,21.3740789 C35.4610481,21.3740843 36.4996183,20.9124966 37.6706918,19.9893155 C38.9015835,19.0148597 39.517032,18.0831372 39.5170429,17.1941442 L39.5170429,10.4754777 L29.5416173,10.4754777 M51.8004056,10.4754777 L50.0438082,8.70605824 L66.4429965,8.70605824 L68.2252369,10.4754777 L63.87862,10.4754777 L63.87862,27.0926376 L61.6732562,24.8744524 L61.6732562,19.5790153 C60.9723175,19.9978698 59.929471,20.2072944 58.5447168,20.2072871 C57.1855909,20.0705276 56.0401712,19.4550773 55.1084523,18.360936 C54.1852731,17.2924558 53.7236871,16.0701039 53.7236889,14.6938766 L53.7236889,10.4754777 L51.8004056,10.4754777 M55.6597919,15.7965594 C55.6597919,16.5316917 55.8606639,17.1984277 56.2624208,17.7967731 C56.7240031,18.480616 57.3009874,18.8225238 57.9933754,18.8225238 C58.7370382,18.8225238 59.3866785,18.6173828 59.9423016,18.2070734 C60.1303467,18.0874116 60.4722636,17.7882353 60.9680522,17.3095407 C61.1646444,17.0873057 61.3997118,16.7069227 61.6732562,16.1683936 L61.6732562,10.4754777 L55.6597919,10.4754777 L55.6597919,15.7965594 M68.3149905,10.4754777 L66.4045304,10.4754777 L64.647933,8.70605824 L68.6611818,8.70605824 C68.2508797,7.50082097 67.661074,6.33403083 66.8917611,5.20568436 C65.8831081,3.72691724 64.9214665,2.98752282 64.0068379,2.98749857 C63.1093089,2.98752282 62.3955597,3.3550831 61.8655831,4.09018048 C61.3869049,4.74839289 61.1475631,5.54334888 61.1475576,6.47505066 C61.1475631,7.0563294 61.331343,7.74016259 61.698899,8.52655188 L59.621755,8.52655188 C59.3311329,7.75725825 59.18581,6.96230244 59.18581,6.14168171 C59.18581,4.61162632 59.5020895,3.40209657 60.1346303,2.513089 C60.869757,1.49591184 61.972438,0.987284874 63.4426751,0.987284874 C65.0154945,0.987284874 66.391709,1.92330757 67.5713222,3.79527727 C68.1782219,4.76121468 68.9090688,6.39814015 69.7638628,8.70605824 L73.0719094,8.70605824 L74.8285069,10.4754777 L70.4434239,10.4754777 L70.4434239,27.0669948 L68.3149905,24.9385613 L68.3149905,10.4754777 M74.931082,10.4754777 L73.0334433,10.4754777 L71.2383797,8.70605824 L74.9567266,8.70605824 C74.1019326,7.44953343 73.6745365,5.91945708 73.6745384,4.11582425 C73.6745365,2.79092081 74.2515208,1.74807526 75.4054912,0.987284874 C76.4055953,0.329121704 77.6065769,0 79.0084416,0 C81.6668352,0 84.1371837,0.880462203 86.4194888,2.64130783 C89.0522323,4.67573564 90.902856,6.75287863 91.9713636,8.87274281 L91.3174489,8.87274281 C89.9497632,6.85545351 88.3854963,5.26981557 86.624639,4.11582425 C84.7440852,2.88494776 82.5686405,2.20538862 80.0983011,2.07714499 C78.6707918,2.00023886 77.4997274,2.25667615 76.5851044,2.84645795 C75.6191865,3.47902769 75.1362303,4.36801082 75.1362321,5.51340955 C75.1362303,6.92383688 75.5508049,7.98805196 76.3799542,8.70605824 L79.0597291,8.70605824 L80.8547927,10.4754777 L77.0595154,10.4754777 L77.0595154,27.0926376 L74.931082,24.9770274 L74.931082,10.4754777 M90.2788751,10.4754777 L78.9827969,10.4754777 L77.2261994,8.70605824 L95.4460942,8.70605824 L97.2283364,10.4754777 L92.1893369,10.4754777 L92.1893369,16.0658185 L86.1886959,16.0401757 C84.5731323,16.0316378 83.765355,16.4162952 83.7653587,17.1941442 C83.765355,17.6557411 83.8935729,18.0489455 84.1500161,18.3737574 C84.4235441,18.7242304 84.7868294,18.8994633 85.2398756,18.8994541 C85.5988829,18.8994633 86.1331266,18.8439013 86.8426105,18.7327701 C87.5520798,18.6131083 88.0863254,18.553272 88.4453472,18.5532647 C89.676237,18.553272 90.7319031,19.0746961 91.6123509,20.1175335 C92.4585833,21.1090997 92.8817049,22.2331491 92.8817177,23.4896891 C92.8817049,24.4897986 92.3816511,25.3574122 91.3815579,26.0925317 C90.4669184,26.7678166 89.4881827,27.1054591 88.4453472,27.1054591 C86.5049608,27.1054591 84.6671603,26.225024 82.9319367,24.4641521 C81.7608687,23.2759956 80.5427912,21.5535898 79.2777006,19.296933 L80.059835,18.8481666 C80.8804337,20.4038957 81.8762652,21.7416441 83.0473332,22.8614173 C84.5261191,24.2803741 85.970717,24.9898507 87.3811305,24.9898489 C88.3128439,24.9898507 89.1548147,24.6863999 89.9070409,24.0794947 C90.7190816,23.4384052 91.1251075,22.6648196 91.1251202,21.7587344 C91.1251075,21.3826313 90.9968895,21.0620847 90.7404628,20.7970928 C90.4840142,20.5321154 90.1720165,20.3996213 89.8044659,20.3996158 C89.4197993,20.3996213 88.8684579,20.5492113 88.1504434,20.8483803 C87.4409577,21.1390169 86.8981652,21.2843307 86.5220639,21.2843252 C85.5475953,21.2843307 84.6885287,20.7800042 83.9448659,19.7713422 C83.7140675,19.4721731 83.2011922,18.553272 82.40624,17.0146388 C82.0899642,16.4077463 81.9318272,15.9162413 81.9318308,15.5401218 C81.9318272,14.8135603 82.3207571,14.3306041 83.0986208,14.0912495 C83.5345602,13.9544955 84.2226684,13.8861122 85.1629452,13.8860994 L90.2788751,13.8860994 L90.2788751,10.4754777 M95.4460942,10.4754777 L93.6894968,8.70605824 L111.601666,8.70605824 L113.383909,10.4754777 L109.011647,10.4754777 L109.011647,27.0926376 L106.92168,24.9770274 L106.92168,20.3226836 C105.887371,21.5108511 104.562444,22.1049312 102.946895,22.1049257 C100.955225,22.1049312 99.4336966,21.3441671 98.3823049,19.8226297 C97.6984693,18.8310799 97.3565525,17.702756 97.3565543,16.4376527 C98.1258654,16.4376636 98.8139718,16.2410623 99.4208788,15.847847 C100.09616,15.4119148 100.493637,14.8349306 100.613313,14.1168924 C100.664595,13.9459467 100.69024,13.6510448 100.690244,13.2321829 C100.69024,11.9842009 100.220104,11.0653016 99.2798376,10.4754777 L95.4460942,10.4754777 M101.26723,16.7710225 C100.779992,17.283907 100.344049,17.6429197 99.9593969,17.8480607 C99.6858598,17.9933836 99.2926554,18.1344247 98.7797837,18.2711823 C99.1815333,19.5277351 100.036324,20.3483337 101.34416,20.7329838 C101.822838,20.8270173 102.130562,20.874025 102.267336,20.874025 C103.891434,20.874025 105.229182,19.8739245 106.280585,17.8737035 C106.673778,17.1214974 106.870392,16.2624326 106.870392,15.2965056 L106.870392,10.4754777 L101.613419,10.4754777 C102.263056,11.3302863 102.587875,12.3603095 102.587882,13.565551 C102.587875,14.7708216 102.147658,15.8393109 101.26723,16.7710225 M113.512126,10.4754777 L111.601666,10.4754777 L109.832247,8.70605824 L118.243403,8.70605824 L120,10.4754777 L115.614915,10.4754777 L115.614915,27.0926376 L113.512126,24.964206 L113.512126,10.4754777" id="bh-wordmark" fill="#000000" fill-rule="nonzero"></path>
    </g>
</svg>

<svg xmlns="http://www.w3.org/2000/svg" width="120" height="28"><path fill="#000" fill-rule="nonzero" d="M3.693 10.475H1.795L0 8.706h3.718C2.864 7.45 2.436 5.92 2.436 4.116c0-1.29.5-2.312 1.5-3.065.812-.606 1.907-.91 3.283-.91 1.384 0 2.573.154 3.564.462 1.154.35 2.304.966 3.45 1.846 1.982 1.53 3.508 3.671 4.577 6.424h-.654c-.137-.24-.364-.688-.68-1.347-.316-.726-.919-1.517-1.808-2.372-1.128-1.085-2.23-1.859-3.308-2.32C11.061 2.278 9.75 2 8.424 2c-1.222 0-2.231.274-3.026.82-1 .685-1.5 1.582-1.5 2.693 0 1.41.414 2.475 1.244 3.193h2.615l1.795 1.77h-3.73v16.617l-2.13-2.129V10.475m4.052 0L6.001 8.706h17.63l1.73 1.77h-4.32v16.617l-2.283-2.283v-4.603c-.64.428-1.376.804-2.205 1.129-.949.367-1.744.534-2.385.5-1.3-.069-2.423-.697-3.372-1.885-.752-.949-1.128-2.069-1.128-3.36.145-.666.393-1.2.743-1.602 1.36-1.282 2.864-1.894 4.514-1.834 1.64.052 2.919.838 3.833 2.36v-5.04H7.744m10.745 5.616c-.273-.58-1.12-.871-2.539-.871-1.521 0-2.872.598-4.051 1.795-.573.58-.86 1.175-.86 1.782 0 .803.655 1.205 1.962 1.205 1.642 0 3.133-.692 4.475-2.077.676-.692 1.013-1.304 1.013-1.834m7-5.616h-1.897l-1.795-1.769h3.719c-.855-1.256-1.283-2.787-1.283-4.59 0-1.29.5-2.312 1.5-3.065.813-.606 1.907-.91 3.283-.91 1.385 0 2.573.154 3.564.462 1.154.35 2.304.966 3.45 1.846 1.983 1.53 3.508 3.671 4.577 6.424h-.654c-.137-.24-.363-.688-.68-1.347-.316-.726-.918-1.517-1.807-2.372-1.129-1.085-2.231-1.859-3.309-2.32C32.858 2.278 31.547 2 30.221 2c-1.222 0-2.23.274-3.026.82-1 .685-1.5 1.582-1.5 2.693 0 1.41.415 2.475 1.244 3.193h2.615l1.796 1.77h-3.732v16.617l-2.128-2.129V10.475m4.052 0-1.757-1.769h23.964l1.757 1.77h-11.86v4.936c.256-.23.444-.389.564-.475.29-.213.577-.359.859-.435a6.071 6.071 0 0 1 1.628-.244c1.308 0 2.39.457 3.244 1.372.855.906 1.282 2.021 1.282 3.346 0 1.06-.376 2.06-1.128 3-.564.727-1.449 1.334-2.654 1.821l-.936-1.82c1.214-.564 2.026-1.009 2.436-1.334.906-.71 1.359-1.487 1.359-2.333 0-.761-.355-1.45-1.064-2.065-.453-.384-1.158-.53-2.116-.436-.453.043-1.008.342-1.667.898a10.39 10.39 0 0 0-1.808 2.013v8.373l-2.128-2.154v-3.732c-.368.41-.91.765-1.628 1.065-.718.29-1.364.436-1.936.436-1.24 0-2.3-.424-3.18-1.27-.872-.846-1.308-1.889-1.308-3.128 0-1.265.414-2.308 1.244-3.129.829-.829 1.876-1.244 3.141-1.244 1.607 0 2.83.684 3.667 2.052v.782c-.752-.667-1.616-1-2.59-1-1.248 0-2.214.244-2.898.73-.94.668-1.453 1.556-1.538 2.668-.052.7.14 1.265.577 1.692.359.342.854.513 1.487.513.906 0 1.945-.462 3.116-1.385 1.23-.974 1.846-1.906 1.846-2.795v-6.719h-9.975m22.258 0-1.756-1.769h16.399l1.782 1.77H63.88v16.617l-2.206-2.219V19.58c-.7.419-1.744.628-3.128.628-1.36-.136-2.505-.752-3.437-1.846-.923-1.069-1.384-2.29-1.384-3.667v-4.219H51.8m3.86 5.322c0 .735.2 1.401.602 2 .462.684 1.039 1.026 1.731 1.026.744 0 1.394-.206 1.95-.616.187-.12.53-.419 1.025-.897.197-.223.432-.603.705-1.142v-5.693H55.66v5.322m12.655-5.322h-1.91l-1.757-1.769h4.013c-.41-1.205-1-2.372-1.77-3.5-1.008-1.48-1.97-2.218-2.884-2.219-.898 0-1.611.368-2.141 1.103-.48.658-.718 1.453-.718 2.385 0 .581.183 1.265.55 2.052h-2.076a6.694 6.694 0 0 1-.436-2.385c0-1.53.316-2.74.949-3.629.735-1.017 1.837-1.526 3.308-1.526 1.572 0 2.949.936 4.128 2.808.607.966 1.338 2.603 2.193 4.911h3.308l1.757 1.77h-4.386v16.591l-2.128-2.128V10.475m6.616 0h-1.898l-1.795-1.769h3.719c-.855-1.256-1.282-2.787-1.282-4.59 0-1.325.577-2.368 1.73-3.129C76.405.33 77.607 0 79.008 0c2.659 0 5.13.88 7.411 2.641 2.633 2.035 4.484 4.112 5.552 6.232h-.654c-1.367-2.018-2.932-3.603-4.692-4.757-1.88-1.231-4.056-1.91-6.527-2.039-1.427-.077-2.598.18-3.513.77-.966.632-1.449 1.521-1.449 2.666 0 1.41.415 2.475 1.244 3.193h2.68l1.795 1.77H77.06v16.617l-2.129-2.116V10.475m15.348 0H78.983l-1.757-1.769h18.22l1.782 1.77H92.19v5.59l-6-.026c-1.616-.008-2.424.376-2.424 1.154 0 .462.129.855.385 1.18.274.35.637.525 1.09.525.359 0 .893-.055 1.603-.166.71-.12 1.243-.18 1.602-.18 1.231 0 2.287.522 3.167 1.565.847.991 1.27 2.115 1.27 3.372 0 1-.5 1.867-1.5 2.603-.915.675-1.894 1.012-2.937 1.012-1.94 0-3.778-.88-5.513-2.64-1.171-1.189-2.39-2.911-3.654-5.168l.782-.449c.82 1.556 1.816 2.894 2.987 4.013 1.48 1.42 2.924 2.129 4.334 2.129.932 0 1.774-.304 2.526-.91.812-.642 1.218-1.415 1.218-2.321 0-.376-.128-.697-.385-.962a1.254 1.254 0 0 0-.936-.397c-.384 0-.936.15-1.654.448-.709.291-1.252.436-1.628.436-.974 0-1.833-.504-2.577-1.513-.23-.299-.744-1.218-1.539-2.756-.316-.607-.474-1.099-.474-1.475 0-.726.389-1.21 1.167-1.449.436-.137 1.124-.205 2.064-.205h5.116v-3.41m5.167 0-1.757-1.77h17.913l1.782 1.77h-4.372v16.617l-2.09-2.116v-4.654c-1.035 1.188-2.36 1.782-3.975 1.782-1.992 0-3.513-.76-4.565-2.282-.684-.992-1.025-2.12-1.025-3.385.769 0 1.457-.197 2.064-.59.675-.436 1.073-1.013 1.192-1.731.052-.171.077-.466.077-.885 0-1.248-.47-2.167-1.41-2.757h-3.834m5.821 6.296c-.487.513-.923.872-1.308 1.077-.273.145-.666.286-1.18.423.403 1.257 1.257 2.077 2.565 2.462.479.094.787.141.923.141 1.624 0 2.962-1 4.014-3 .393-.753.59-1.612.59-2.577v-4.822h-5.258c.65.855.975 1.885.975 3.09 0 1.206-.44 2.274-1.32 3.206m12.244-6.296h-1.91l-1.77-1.769h8.411l1.757 1.77h-4.385v16.617l-2.103-2.129V10.475"/></svg>
